!!!COM: Felix Mendelssohn
!!!CNT: Deutsch
!!!TXO: Deutsch
!!!OTL: Wenn sich swei Herzen scheiden
!!!LYR: Geibel
!!!OPS: Op. 99
!!!ONM: No. 5
!!!ENC: Daniel Alt & Leigh VanHandel
!!!YOR: Sa2mmtliche Lieder fu2r eine Singstimme 
!!!YOR: Neu revidirt von Dr. L. Benda, Ausgabe fu2r mittlere Stimme
!!!YOR: Braunschweig. Henry Litolff's Verlag. Boston and New York: Arthur P. Schmidt.
!!!ODT: 1845/
**kern	**silbe
*staff1	*
=1-	=1
*clefG2	*
*k[b-]	*
*M2/4	*
{8a	{Wenn
16f	sich
16g	zwei
8a	Her-
8g	-zen
=2	=2
4b-	schei-
8a	-den,
8dd	die
=3	=3
8cc	sich
8b-	der-
8a	-einst
8b-	ge-
=4	=4
4.e}	-liebt,}
16r	.
{16a	{das
=5	=5
8a	ist
16f	ein
16g	|
8a	gro-
16cc	-sess
16b-	|
=6	=6
4a	Lei-
8g	-den,
8cc	wie’s
=7	=7
8.cc	gro2-
16b-	-sser
8b-	kei-
8dd	-nes
=8	=8
4.g}	giebt.}
{8g	{Es
=9	=9
8g	klingt
8a	das
8b-	Wort
8cc	so
=10	=10
8.b-	trau-
16a	-rig
8a	gar:
8a	fahr’
=11	=11
8bn	wohl,
8cc	fahr’
8dd	wohl
8ee	auf
=12	=12
8.dd	im-
16dd-	-mer-
4dd-}	-dar:}
=13	=13
{8a	{wenn
16f	sich
16g	zwei
8a	Her-
8g	-zen
=14	=14
4b-	schei-
8a	-den,
8dd	die
=15	=15
8a	sich
8f	der-
8.e	-einst
16f	ge-
=16	=16
4d}	-liebt.}
4r	.
==	==
*-	*-
